icons/mark-github-24.svg

<svg xmlns="http://www.w3.org/2000/svg" width="24" height="24" viewBox="0 0 24 24"><path d="M10.3025 16.6518C7.46624 16.308 5.46795 14.2667 5.46795 11.6238C5.46795 10.5495 5.85472 9.38919 6.49933 8.61566C6.21999 7.90659 6.26297 6.4025 6.58527 5.77938C7.44475 5.67195 8.60505 6.12317 9.29263 6.74629C10.1091 6.48845 10.9686 6.35953 12.0215 6.35953C13.0743 6.35953 13.9338 6.48845 14.7074 6.72481C15.3734 6.12317 16.5552 5.67195 17.4147 5.77938C17.7155 6.35953 17.7585 7.86362 17.4792 8.59417C18.1668 9.41068 18.532 10.5065 18.532 11.6238C18.532 14.2667 16.5337 16.265 13.6545 16.6303C14.385 17.103 14.8792 18.1344 14.8792 19.3162V21.5508C14.8792 22.1954 15.4164 22.5607 16.061 22.3029C19.9502 20.8203 23.0013 16.9311 23.0013 12.118C23.0013 6.03722 18.0593 1.07373 11.9785 1.07373C5.89769 1.07373 0.998657 6.03722 0.998657 12.118C0.998657 16.8882 4.02832 20.8418 8.11085 22.3244C8.691 22.5392 9.24966 22.1525 9.24966 21.5723V19.8534C8.94884 19.9823 8.56208 20.0682 8.21828 20.0682C6.80014 20.0682 5.96215 19.2947 5.36052 17.8551C5.12416 17.2749 4.86631 16.9311 4.37211 16.8667C4.11427 16.8452 4.02832 16.7377 4.02832 16.6088C4.02832 16.351 4.45806 16.1576 4.8878 16.1576C5.51092 16.1576 6.0481 16.5444 6.60676 17.3394C7.0365 17.9625 7.48773 18.2418 8.0249 18.2418C8.56208 18.2418 8.90587 18.0484 9.40007 17.5542C9.76535 17.189 10.0447 16.8667 10.3025 16.6518Z"/></svg>

<svg xmlns="http://www.w3.org/2000/svg" width="24" height="24" viewBox="0 0 24 24"><path d="M10.303 16.652c-2.837-.344-4.835-2.385-4.835-5.028 0-1.074.387-2.235 1.031-3.008-.279-.709-.236-2.214.086-2.837.86-.107 2.02.344 2.708.967.816-.258 1.676-.386 2.728-.386 1.053 0 1.913.128 2.686.365.666-.602 1.848-1.053 2.708-.946.3.581.344 2.085.064 2.815.688.817 1.053 1.913 1.053 3.03 0 2.643-1.998 4.641-4.877 5.006.73.473 1.224 1.504 1.224 2.686v2.235c0 .644.537 1.01 1.182.752 3.889-1.483 6.94-5.372 6.94-10.185 0-6.081-4.942-11.044-11.022-11.044-6.081 0-10.98 4.963-10.98 11.044a10.84 10.84 0 0 0 7.112 10.206c.58.215 1.139-.172 1.139-.752v-1.719a2.768 2.768 0 0 1-1.032.215c-1.418 0-2.256-.773-2.857-2.213-.237-.58-.495-.924-.989-.988-.258-.022-.344-.129-.344-.258 0-.258.43-.451.86-.451.623 0 1.16.386 1.719 1.181.43.623.881.903 1.418.903.537 0 .881-.194 1.375-.688.365-.365.645-.687.903-.902Z"/></svg>
